book-open-blank-variant-outline.svg

<svg fill="currentColor" viewBox="0 0 24 24"><path d="M12 21.5c-1.35-.85-3.8-1.5-5.5-1.5-1.65 0-3.35.3-4.75 1.05-.1.05-.15.05-.25.05-.25 0-.5-.25-.5-.5V6c.6-.45 1.25-.75 2-1 1.11-.35 2.33-.5 3.5-.5 1.95 0 4.05.4 5.5 1.5 1.45-1.1 3.55-1.5 5.5-1.5 1.17 0 2.39.15 3.5.5.75.25 1.4.55 2 1v14.6c0 .25-.25.5-.5.5-.1 0-.15 0-.25-.05-1.4-.75-3.1-1.05-4.75-1.05-1.7 0-4.15.65-5.5 1.5m-1-14c-1.36-.6-3.16-1-4.5-1-1.2 0-2.4.15-3.5.5v11.5c1.1-.35 2.3-.5 3.5-.5 1.34 0 3.14.4 4.5 1zM13 19c1.36-.6 3.16-1 4.5-1 1.2 0 2.4.15 3.5.5V7c-1.1-.35-2.3-.5-3.5-.5-1.34 0-3.14.4-4.5 1z"/></svg>

<svg  viewBox="0 0 24 24" fill="currentColor"><path  d="M12 21.5C10.65 20.65 8.2 20 6.5 20C4.85 20 3.15 20.3 1.75 21.05C1.65 21.1 1.6 21.1 1.5 21.1C1.25 21.1 1 20.85 1 20.6V6C1.6 5.55 2.25 5.25 3 5C4.11 4.65 5.33 4.5 6.5 4.5C8.45 4.5 10.55 4.9 12 6C13.45 4.9 15.55 4.5 17.5 4.5C18.67 4.5 19.89 4.65 21 5C21.75 5.25 22.4 5.55 23 6V20.6C23 20.85 22.75 21.1 22.5 21.1C22.4 21.1 22.35 21.1 22.25 21.05C20.85 20.3 19.15 20 17.5 20C15.8 20 13.35 20.65 12 21.5M11 7.5C9.64 6.9 7.84 6.5 6.5 6.5C5.3 6.5 4.1 6.65 3 7V18.5C4.1 18.15 5.3 18 6.5 18C7.84 18 9.64 18.4 11 19V7.5M13 19C14.36 18.4 16.16 18 17.5 18C18.7 18 19.9 18.15 21 18.5V7C19.9 6.65 18.7 6.5 17.5 6.5C16.16 6.5 14.36 6.9 13 7.5V19Z"/></svg>
